public/static/img/user/out.svg

<svg width="24" height="24" viewBox="0 0 24 24" fill="none" xmlns="http://www.w3.org/2000/svg">
<path d="M10.4967 18.7542V19.6544C10.4967 20.5547 11.0968 21.1548 11.9971 21.1548H20.9993C21.8995 21.1548 22.4996 20.5547 22.4996 19.6544V4.3507C22.4996 3.45048 21.8995 2.85033 20.9993 2.85033H11.9971C11.0968 2.85033 10.4967 3.45048 10.4967 4.3507V6.75128C10.4967 7.20139 10.1966 7.50147 9.74652 7.50147C9.29641 7.50147 8.99634 7.20139 8.99634 6.75128V4.50073C8.99634 2.85033 10.3467 1.5 11.9971 1.5H20.9993C22.6497 1.5 24 2.85033 24 4.50073V19.5044C24 21.1548 22.6497 22.5051 20.9993 22.5051H11.9971C10.3467 22.5051 8.99634 21.1548 8.99634 19.5044V17.2538C8.99634 16.8037 9.29641 16.5037 9.74652 16.5037C10.1966 16.5037 10.4967 16.8037 10.4967 17.2538V18.7542Z" fill="#FF3B30"/>
<path d="M1.19768 11.4026L5.39871 7.20162C5.69878 6.90154 6.14889 6.90154 6.44896 7.20162C6.74904 7.50169 6.74904 7.9518 6.44896 8.25187L3.44823 11.2526H16.3514C16.8015 11.2526 17.1016 11.5527 17.1016 12.0028C17.1016 12.4529 16.8015 12.753 16.3514 12.753H3.44823L6.44896 15.7537C6.74904 16.0538 6.74904 16.5039 6.44896 16.804C6.14889 17.104 5.69878 17.104 5.39871 16.804L1.19768 12.6029C0.897605 12.1528 0.897605 11.7027 1.19768 11.4026Z" fill="#FF3B30"/>
</svg>

<svg width="24" height="24" viewBox="0 0 24 24" fill="none" xmlns="http://www.w3.org/2000/svg"><path d="M10.497 18.754v.9c0 .9.6 1.5 1.5 1.5H21c.9 0 1.5-.6 1.5-1.5V4.351c0-.9-.6-1.5-1.5-1.5h-9.002c-.9 0-1.5.6-1.5 1.5v2.4c0 .45-.3.75-.75.75s-.75-.3-.75-.75v-2.25a3.01 3.01 0 0 1 3-3.001H21c1.65 0 3 1.35 3 3v15.004a3.01 3.01 0 0 1-3 3.001h-9.003c-1.65 0-3-1.35-3-3v-2.251c0-.45.3-.75.75-.75s.75.3.75.75v1.5z" fill="#FF3B30"/><path d="m1.198 11.403 4.2-4.201c.3-.3.75-.3 1.051 0 .3.3.3.75 0 1.05l-3 3H16.35c.45 0 .75.3.75.75s-.3.751-.75.751H3.448l3.001 3c.3.3.3.75 0 1.051-.3.3-.75.3-1.05 0l-4.201-4.201c-.3-.45-.3-.9 0-1.2z" fill="#FF3B30"/></svg>
